src/main/resources/icons/AllIcons/runConfigurations/remoteDebug.svg

<!-- Copyright 2000-2021 JetBrains s.r.o. Use of this source code is governed by the Apache 2.0 license that can be found in the LICENSE file. -->
<svg xmlns="http://www.w3.org/2000/svg" width="16" height="16" viewBox="0 0 16 16">
  <g fill="none" fill-rule="evenodd">
    <polygon fill="#231F20" fill-opacity=".7" points="12 6.504 9 4 9 6 3 6 3 9 4 9 4 7 9 6.997 9 9"/>
    <path fill="#9AA7B0" fill-opacity=".8" d="M8 13L8 14 1 14 1 3 4 3 4 5 2 5 2 13 8 13zM15 7L14 7 14 3 6 3 6 5 5 5 5 1 15 1 15 7z"/>
    <path fill="#62B543" d="M15.0810909,13.0334675 L15.0810909,13.2538462 C15.0810909,13.4718333 15.0435455,13.8190887 14.9900909,14.0213707 L16,14.0213707 L16,15.0092739 L14.5039091,15.0092739 C14.0368182,15.5784277 13.3317273,15.8983868 12.5356364,15.8983868 C11.7395455,15.8983868 11.0344545,15.5784277 10.5673636,15.0092739 L9,15.0092739 L9,14.0213707 L10.0811818,14.0213707 C10.0277273,13.8190887 9.99018182,13.4718333 9.99018182,13.2538462 L9.99018182,13.0334675 L9,13.0334675 L9,12.0455643 L9.99018182,12.0455643 L9.99018182,11.3692308 C9.99018182,11.2618077 10.0092727,11.1619432 10.0226364,11.0576612 L9,11.0576612 L9,10.069758 L10.3459091,10.069758 C10.589,9.65954002 10.9440909,9.36902564 11.3723636,9.14852564 L10.4782727,8.26652564 L11.1534545,7.6 L12.4363636,8.86646154 C12.4700909,8.86520513 12.4662727,8.86017949 12.5,8.86017949 C12.5120909,8.86017949 12.557909,8.86520517 12.5699999,8.86583338 L13.8465455,7.6 L14.5217273,8.26652564 L13.6530909,9.12402564 C14.1017273,9.34326923 14.4733636,9.64446309 14.7253636,10.069758 L16,10.069758 L16,11.0576612 L15.0486364,11.0576612 C15.062,11.1619432 15.0810909,11.2618077 15.0810909,11.3692308 L15.0810909,12.0455643 L16,12.0455643 L16,13.0334675 L15.0810909,13.0334675 Z M11.469758,11.0576612 L11.469758,12.0455643 L13.5344756,12.0455643 L13.5344756,11.0576612 L11.469758,11.0576612 Z M11.469758,13.0334675 L11.469758,14.0213707 L13.5344756,14.0213707 L13.5344756,13.0334675 L11.469758,13.0334675 Z"/>
  </g>
</svg>

<svg xmlns="http://www.w3.org/2000/svg" width="16" height="16" viewBox="0 0 16 16"><rect id="frame" width="16" height="16" fill="none"/><g fill="none" fill-rule="evenodd"><path fill="#231F20" fill-opacity=".7" d="M12 6.504L9 4v2H3v3h1V7l5-.003V9z"/><path fill="#9AA7B0" fill-opacity=".8" d="M8 13v1H1V3h3v2H2v8h6zm7-6h-1V3H6v2H5V1h10v6z"/><path fill="#62B543" d="M15.081 13.033v.22c0 .219-.037.566-.09.768H16v.988h-1.496c-.467.57-1.172.89-1.968.89s-1.502-.32-1.969-.89H9v-.988h1.081a3.635 3.635 0 0 1-.09-.767v-.22H9v-.988h.99v-.677c0-.107.02-.207.033-.311H9v-.988h1.346c.243-.41.598-.701 1.026-.921l-.894-.882.675-.667 1.283 1.266c.034 0 .03-.006.064-.006.012 0 .058.005.07.006L13.847 7.6l.675.667-.869.857c.449.22.82.52 1.072.946H16v.988h-.951c.013.104.032.204.032.311v.677H16v.987h-.919zm-3.611-1.975v.988h2.064v-.988H11.47zm0 1.975v.988h2.064v-.988H11.47z"/></g></svg>
